X: 23135
T: Laxo Burn
R: reel
M: 4/4
K: Dmajor
A2|F>D D/D/D FGA=c|B>G G2 GABd|c>A A/A/A cdeg|fdcd BdAd|
F>D D/D/D FGA=c|B>G G2 GABd|c>A A/A/A cdeg|f2 d2 d2||
g2|f2 d<f Afdf|g2 e<g Bgeg|^g2 e<g Bgeg|^g<aea caA=g|
f2 d<f Afdf|g2 e<g Bge^g|a>A A/A/A cdeg|f2 d2 d2||

